X:140
T:Farewell to Cailroe
B:Music from Ireland 4, Bulmer & Sharpley
S:Sean McGuire
Z:Paul de Grae
M:4/4
L:1/8
R:reel
K:A
EG|A2 EC DCDE|CA,CE A2 (3Bcd|e^def eAcA|BGAF GEFD|
EFGE AGEc|(3ded ce d2 cd|efed BA ~A2|BEGB A2:|:E2|
A2 ec dcdB|cABG AGED|B,CDB, EDEF|GEBG AGEG|
A2 EA CAEA|FdBA GEFG|A2 ec dcdB|GABG A2:|
